; HEADER_BLOCK_START
; generated by AnycubicSlicerNext 1.3.4.0 on 2025-10-03 at 20:00:37
; total layer number: 250
; filament_density: 1.24
; filament_diameter: 1.75
; max_z_height: 50.00
; exclude_object: 1
; model_instances: 1
; HEADER_BLOCK_END

; THUMBNAIL_BLOCK_START
; THUMBNAIL_BLOCK_END

; THUMBNAIL_BLOCK_START
; THUMBNAIL_BLOCK_END

; external perimeters extrusion width = 0.42mm
; perimeters extrusion width = 0.45mm
; infill extrusion width = 0.45mm
; solid infill extrusion width = 0.42mm
; top infill extrusion width = 0.42mm
; first layer extrusion width = 0.50mm

; EXECUTABLE_BLOCK_START
EXCLUDE_OBJECT_DEFINE NAME=temperature_tower.stl_id_0_copy_0 CENTER=127.5,127.5 POLYGON=[[105.257,122.501],[149.743,122.501],[149.743,132.499],[105.257,132.499],[105.257,122.501]]
;TYPE:Custom
G9111 bedTemp=60 extruderTemp=250
M117
M900 K0.051
T0
G90
G21
M83 ; use relative distances for extrusion
; filament start gcode
M106 S0
;LAYER_CHANGE
;Z:0.2
;HEIGHT:0.2
; BEFORE_LAYER_CHANGE 0 @ 0.2mm
G1 E-2 F3600
; AFTER_LAYER_CHANGE 0 @ 0.2mm
M104 S250 ; set nozzle temperature
M204 P500
SET_VELOCITY_LIMIT SQUARE_CORNER_VELOCITY=9
; printing object "temperature_tower.stl" id:0 copy 0
EXCLUDE_OBJECT_START NAME=temperature_tower.stl_id_0_copy_0
M204 T500
G1 X112.229 Y119.429 F21000
G1 Z.2
G1 E2 F3600
;TYPE:Brim
;WIDTH:0.5
;MM3_PER_MM:0.091416
G1 F2700
G1 X112.756 Y119.062 E.02341
G1 X113.33 Y118.777 E.02341
G1 X113.941 Y118.579 E.02341
G1 X114.577 Y118.473 E.02353
G1 X114.975 Y118.455 E.01454
G1 X136.345 Y118.455 E.77972
G1 X145.279 Y118.455 E.32595
G1 X145.848 Y118.476 E.0208
G1 X146.379 Y118.527 E.01946
G1 X146.822 Y118.6 E.01636
G1 X147.445 Y118.772 E.02359
G1 X148.031 Y119.033 E.02341
G1 X148.573 Y119.377 E.02341
G1 X149.058 Y119.797 E.02341
G1 X149.476 Y120.284 E.02341
G1 X149.817 Y120.828 E.02341
G1 X150.075 Y121.416 E.02341
G1 X150.242 Y122.033 E.02332
G1 X150.322 Y122.87 E.03071
G1 X150.322 Y132.133 E.33795
G1 X150.274 Y132.781 E.02372
G1 X150.133 Y133.407 E.02341
G1 X149.901 Y134.006 E.02341
G1 X149.583 Y134.563 E.02341
G1 X149.187 Y135.068 E.02341
G1 X148.721 Y135.509 E.02341
G1 X148.194 Y135.876 E.02341
G1 X147.622 Y136.16 E.02332
G1 X146.823 Y136.4 E.03042
G1 X146.097 Y136.503 E.02677
G1 X145.416 Y136.541 E.02489
G1 X114.978 Y136.544 E1.11054
G1 X114.33 Y136.496 E.02372
G1 X113.704 Y136.355 E.02341
G1 X113.106 Y136.123 E.02341
G1 X112.548 Y135.805 E.02341
G1 X112.043 Y135.409 E.02341
G1 X111.603 Y134.942 E.02341
G1 X111.235 Y134.416 E.02341
G1 X110.95 Y133.841 E.02341
G1 X110.752 Y133.231 E.02341
G1 X110.646 Y132.595 E.02353
G1 X110.628 Y132.196 E.01454
G1 X110.628 Y122.805 E.34265
G1 X110.676 Y122.157 E.02372
G1 X110.817 Y121.531 E.02341
G1 X111.049 Y120.933 E.02341
G1 X111.367 Y120.375 E.02341
G1 X111.763 Y119.87 E.02341
G1 X112.2 Y119.457 E.02196
G1 X112.514 Y119.791 F21000
G1 F2700
G1 X112.527 Y119.779 E.00063
G1 X112.981 Y119.462 E.0202
G1 X113.494 Y119.206 E.02094
G1 X114.04 Y119.027 E.02094
G1 X114.617 Y118.93 E.02137
G1 X114.982 Y118.912 E.01334
G1 X136.345 Y118.912 E.77945
G1 X145.268 Y118.912 E.32555
G1 X145.814 Y118.933 E.01996
G1 X146.316 Y118.98 E.01838
G1 X146.73 Y119.049 E.01533
G1 X147.28 Y119.201 E.02083
G1 X147.823 Y119.442 E.02168
G1 X148.307 Y119.751 E.02094
G1 X148.725 Y120.114 E.0202
G1 X149.1 Y120.549 E.02094
G1 X149.407 Y121.034 E.02094
G1 X149.645 Y121.578 E.02168
G1 X149.792 Y122.126 E.02072
G1 X149.865 Y122.886 E.02783
G1 X149.865 Y132.121 E.33696
G1 X149.819 Y132.724 E.02205
G1 X149.691 Y133.283 E.02094
G1 X149.491 Y133.799 E.0202
G1 X149.208 Y134.299 E.02094
G1 X148.855 Y134.751 E.02094
G1 X148.423 Y135.159 E.02168
G1 X147.951 Y135.486 E.02094
G1 X147.442 Y135.737 E.02072
G1 X146.715 Y135.954 E.02769
G1 X146.058 Y136.047 E.0242
G1 X145.399 Y136.084 E.02407
G1 X115 Y136.087 E1.10913
G1 X114.388 Y136.04 E.02242
G1 X113.828 Y135.913 E.02094
G1 X113.294 Y135.704 E.02094
G1 X112.796 Y135.418 E.02094
G1 X112.36 Y135.076 E.0202
G1 X111.965 Y134.66 E.02094
G1 X111.635 Y134.191 E.02094
G1 X111.379 Y133.677 E.02094
G1 X111.2 Y133.132 E.02094
G1 X111.103 Y132.554 E.02137
G1 X111.085 Y132.189 E.01334
G1 X111.085 Y122.827 E.34158
G1 X111.128 Y122.235 E.02168
G1 X111.259 Y121.655 E.02168
G1 X111.459 Y121.139 E.0202
G1 X111.742 Y120.639 E.02094
G1 X112.109 Y120.172 E.02168
G1 X112.485 Y119.818 E.01885
G1 X112.799 Y120.151 F21000
G1 F2700
G1 X112.809 Y120.142 E.00046
G1 X113.207 Y119.862 E.01777
G1 X113.66 Y119.634 E.01848
G1 X114.16 Y119.471 E.0192
G1 X114.659 Y119.386 E.01846
G1 X114.997 Y119.369 E.01236
G1 X145.257 Y119.369 E1.10407
G1 X145.788 Y119.389 E.01941
G1 X146.252 Y119.433 E.017
G1 X146.639 Y119.498 E.0143
G1 X147.135 Y119.637 E.01881
G1 X147.597 Y119.842 E.01844
G1 X148.024 Y120.113 E.01848
G1 X148.407 Y120.445 E.01849
G1 X148.725 Y120.814 E.01775
G1 X148.996 Y121.24 E.01843
G1 X149.208 Y121.72 E.01915
G1 X149.342 Y122.219 E.01885
G1 X149.408 Y122.914 E.02547
G1 X149.408 Y132.098 E.3351
G1 X149.363 Y132.665 E.02074
G1 X149.249 Y133.158 E.01848
G1 X149.072 Y133.612 E.01777
G1 X148.832 Y134.035 E.01775
G1 X148.522 Y134.434 E.01843
G1 X148.126 Y134.809 E.01991
G1 X147.727 Y135.085 E.01769
G1 X147.285 Y135.305 E.01802
G1 X146.607 Y135.508 E.02582
G1 X146.007 Y135.592 E.02209
G1 X145.383 Y135.627 E.02283
G1 X115.013 Y135.629 E1.10808
G1 X114.466 Y135.588 E.01998
G1 X113.973 Y135.477 E.01846
G1 X113.501 Y135.294 E.01846
G1 X113.061 Y135.043 E.01849
G1 X112.677 Y134.744 E.01777
G1 X112.327 Y134.377 E.01848
G1 X112.035 Y133.964 E.01846
G1 X111.807 Y133.512 E.01846
G1 X111.644 Y133.012 E.0192
G1 X111.559 Y132.513 E.01846
G1 X111.542 Y132.175 E.01236
G1 X111.542 Y122.849 E.34026
G1 X111.581 Y122.312 E.01964
G1 X111.701 Y121.779 E.01993
G1 X111.878 Y121.326 E.01774
G1 X112.129 Y120.887 E.01848
G1 X112.441 Y120.49 E.01841
G1 X112.77 Y120.178 E.01655
G1 X113.084 Y120.512 F21000
G1 F2700
G1 X113.107 Y120.491 E.00112
G1 X113.452 Y120.251 E.01534
G1 X113.844 Y120.055 E.01601
G1 X114.28 Y119.914 E.01669
G1 X114.701 Y119.843 E.01558
G1 X115.012 Y119.826 E.01137
G1 X145.246 Y119.826 E1.10311
G1 X145.762 Y119.846 E.01886
G1 X146.188 Y119.886 E.0156
G1 X146.546 Y119.946 E.01325
G1 X146.989 Y120.072 E.0168
G1 X147.389 Y120.251 E.01599
G1 X147.742 Y120.475 E.01526
G1 X148.089 Y120.776 E.01677
G1 X148.363 Y121.095 E.01532
G1 X148.587 Y121.447 E.01523
G1 X148.772 Y121.863 E.01658
G1 X148.891 Y122.312 E.01696
G1 X148.951 Y122.942 E.02311
G1 X148.951 Y132.075 E.33322
G1 X148.911 Y132.585 E.01866
G1 X148.814 Y133.013 E.01602
G1 X148.662 Y133.406 E.01537
G1 X148.456 Y133.773 E.01534
G1 X148.189 Y134.118 E.01592
G1 X147.828 Y134.459 E.01812
G1 X147.485 Y134.695 E.0152
G1 X147.127 Y134.873 E.01459
G1 X146.499 Y135.061 E.02394
G1 X145.957 Y135.137 E.01996
G1 X145.366 Y135.17 E.02159
G1 X115.025 Y135.172 E1.10703
G1 X114.544 Y135.135 E.01758
G1 X114.116 Y135.041 E.016
G1 X113.707 Y134.884 E.01599
G1 X113.324 Y134.667 E.01604
G1 X112.977 Y134.397 E.01606
G1 X112.675 Y134.078 E.01603
G1 X112.423 Y133.719 E.01599
G1 X112.228 Y133.327 E.01597
G1 X112.087 Y132.892 E.01669
G1 X112.016 Y132.471 E.01558
G1 X111.999 Y132.16 E.01138
G1 X111.999 Y122.871 E.33892
G1 X112.034 Y122.39 E.0176
G1 X112.143 Y121.904 E.01817
G1 X112.297 Y121.515 E.01525
G1 X112.516 Y121.134 E.01603
G1 X112.787 Y120.792 E.01594
G1 X113.055 Y120.54 E.01344
G1 X113.368 Y120.875 F21000
G1 F2700
G1 X113.404 Y120.841 E.00179
G1 X113.694 Y120.64 E.0129
G1 X114.027 Y120.476 E.01355
G1 X114.398 Y120.357 E.01421
G1 X114.743 Y120.299 E.01277
G1 X115.028 Y120.283 E.01039
G1 X145.234 Y120.283 E1.10212
G1 X145.736 Y120.302 E.01831
G1 X146.123 Y120.339 E.0142
G1 X146.453 Y120.395 E.01219
G1 X146.841 Y120.507 E.01476
G1 X147.163 Y120.651 E.01285
G1 X147.46 Y120.838 E.01281
G1 X147.771 Y121.107 E.01502
G1 X147.988 Y121.361 E.01217
G1 X148.177 Y121.656 E.0128
G1 X148.342 Y122.026 E.01478
G1 X148.441 Y122.404 E.01426
G1 X148.493 Y122.97 E.02075
G1 X148.494 Y132.052 E.33136
G1 X148.459 Y132.506 E.01662
G1 X148.378 Y132.869 E.01358
G1 X148.251 Y133.201 E.01297
G1 X148.078 Y133.511 E.01293
G1 X147.856 Y133.802 E.01336
G1 X147.531 Y134.109 E.01629
G1 X147.244 Y134.305 E.01269
G1 X146.948 Y134.45 E.01204
G1 X146.391 Y134.615 E.0212
G1 X145.907 Y134.682 E.01782
G1 X145.349 Y134.713 E.02036
G1 X115.037 Y134.714 E1.10599
G1 X114.621 Y134.683 E.01521
G1 X114.258 Y134.604 E.01355
G1 X113.912 Y134.473 E.01351
G1 X113.588 Y134.291 E.01356
G1 X113.293 Y134.064 E.01357
G1 X113.037 Y133.795 E.01355
G1 X112.812 Y133.475 E.01425
G1 X112.649 Y133.144 E.01348
G1 X112.53 Y132.773 E.01421
G1 X112.472 Y132.428 E.01277
G1 X112.456 Y132.144 E.01039
G1 X112.456 Y122.892 E.33756
G1 X112.486 Y122.467 E.01555
G1 X112.585 Y122.029 E.01638
G1 X112.715 Y121.706 E.01272
G1 X112.901 Y121.383 E.01359
G1 X113.132 Y121.095 E.01347
G1 X113.338 Y120.902 E.01031
G1 X113.644 Y121.257 F21000
G1 F2700
G1 X113.748 Y121.167 E.00499
G1 X114.089 Y120.967 E.01441
G1 X114.609 Y120.794 E.02
G1 X114.946 Y120.744 E.01246
G1 X145.269 Y120.741 E1.10634
G1 X145.934 Y120.777 E.02432
G1 X146.291 Y120.83 E.01314
G1 X146.575 Y120.905 E.01072
G1 X147.133 Y121.18 E.02271
G1 X147.236 Y121.25 E.00455
G1 X147.43 Y121.421 E.00946
G1 X147.616 Y121.639 E.01045
G1 X147.758 Y121.873 E.00998
G1 X147.905 Y122.207 E.01332
G1 X148.018 Y122.699 E.0184
G1 X148.037 Y132.097 E.3429
G1 X147.939 Y132.706 E.02251
G1 X147.905 Y132.82 E.00434
G1 X147.75 Y133.159 E.01359
G1 X147.529 Y133.47 E.01389
G1 X147.311 Y133.683 E.01115
G1 X146.965 Y133.922 E.01535
G1 X146.701 Y134.048 E.01065
G1 X146.27 Y134.172 E.01636
G1 X145.813 Y134.232 E.01681
G1 X145.352 Y134.256 E.01686
G1 X115.015 Y134.259 E1.10686
G1 X114.293 Y134.128 E.02678
G1 X114.057 Y134.028 E.00936
G1 X113.862 Y133.918 E.00815
G1 X113.472 Y133.585 E.01871
G1 X113.392 Y133.494 E.00443
G1 X113.218 Y133.227 E.01163
G1 X113.075 Y132.927 E.01212
G1 X112.936 Y132.377 E.02069
G1 X112.923 Y132.263 E.0042
G1 X112.913 Y122.845 E.34361
G1 X113.006 Y122.269 E.02129
G1 X113.108 Y121.963 E.0118
G1 X113.257 Y121.683 E.01154
G1 X113.494 Y121.386 E.01386
G1 X113.614 Y121.283 E.00579
G1 X113.899 Y121.633 F21000
G1 F2700
G1 X114.042 Y121.516 E.00676
G1 X114.321 Y121.361 E.01166
G1 X114.751 Y121.228 E.01642
G1 X114.936 Y121.201 E.00682
G1 X145.272 Y121.198 E1.10685
G1 X145.868 Y121.23 E.02176
G1 X146.168 Y121.271 E.01104
G1 X146.473 Y121.35 E.0115
G1 X146.928 Y121.588 E.01872
G1 X147.136 Y121.771 E.01012
G1 X147.265 Y121.931 E.00751
G1 X147.336 Y122.049 E.00503
G1 X147.492 Y122.403 E.01413
G1 X147.573 Y122.801 E.01481
G1 X147.58 Y132.108 E.33958
G1 X147.488 Y132.634 E.01947
G1 X147.373 Y132.9 E.01057
G1 X147.219 Y133.134 E.01023
G1 X146.983 Y133.364 E.01202
G1 X146.708 Y133.544 E.01197
G1 X146.507 Y133.635 E.00807
G1 X146.143 Y133.733 E.01375
G1 X145.756 Y133.779 E.01422
G1 X145.327 Y133.8 E.01568
G1 X115.003 Y133.801 E1.1064
G1 X114.476 Y133.709 E.01953
G1 X114.287 Y133.633 E.00742
G1 X114.074 Y133.513 E.00891
G1 X113.774 Y133.242 E.01478
G1 X113.635 Y133.039 E.00898
G1 X113.482 Y132.718 E.01295
G1 X113.38 Y132.27 E.01677
G1 X113.37 Y122.834 E.34429
G1 X113.458 Y122.34 E.01829
G1 X113.541 Y122.111 E.00892
G1 X113.66 Y121.899 E.00885
G1 X113.849 Y121.673 E.01077
G1 X113.868 Y121.658 E.00085
G1 X114.194 Y121.973 F21000
G1 F2700
G1 X114.32 Y121.879 E.00574
G1 X114.547 Y121.758 E.00937
G1 X114.878 Y121.667 E.01254
G1 X114.993 Y121.654 E.00423
G1 X145.276 Y121.655 E1.1049
G1 X145.801 Y121.682 E.01917
G1 X146.114 Y121.725 E.01154
G1 X146.355 Y121.792 E.00914
G1 X146.635 Y121.939 E.01153
G1 X146.772 Y122.048 E.00639
G1 X146.914 Y122.225 E.00827
G1 X147.077 Y122.596 E.01478
G1 X147.123 Y122.884 E.01064
G1 X147.123 Y132.119 E.33695
G1 X147.066 Y132.458 E.01255
G1 X146.984 Y132.661 E.00801
G1 X146.893 Y132.814 E.00648
G1 X146.736 Y132.98 E.00832
G1 X146.511 Y133.132 E.00991
G1 X146.386 Y133.194 E.00511
G1 X146.099 Y133.278 E.01089
G1 X145.698 Y133.326 E.01476
G1 X145.303 Y133.343 E.0144
G1 X114.993 Y133.344 E1.10592
G1 X114.654 Y133.288 E.01255
G1 X114.45 Y133.205 E.00801
G1 X114.298 Y133.115 E.00646
G1 X114.146 Y132.978 E.00747
G1 X114.052 Y132.852 E.00574
G1 X113.891 Y132.514 E.01366
G1 X113.827 Y132.173 E.01263
G1 X113.827 Y122.822 E.3412
G1 X113.907 Y122.421 E.0149
G1 X113.966 Y122.277 E.00568
G1 X114.057 Y122.125 E.00646
G1 X114.167 Y122.003 E.00601
G1 X114.456 Y122.348 F21000
G1 F2700
G1 X114.602 Y122.239 E.00661
G1 X114.756 Y122.164 E.00626
G1 X114.986 Y122.111 E.0086
G1 X145.28 Y122.112 E1.10531
G1 X145.733 Y122.134 E.01657
G1 X146.062 Y122.179 E.0121
G1 X146.229 Y122.231 E.00639
G1 X146.339 Y122.287 E.0045
G1 X146.498 Y122.414 E.00743
G1 X146.628 Y122.676 E.01066
G1 X146.666 Y122.873 E.00731
G1 X146.666 Y132.13 E.33776
G1 X146.637 Y132.301 E.00634
G1 X146.597 Y132.418 E.00451
G1 X146.493 Y132.593 E.00742
G1 X146.247 Y132.759 E.0108
G1 X146.054 Y132.823 E.00742
G1 X145.682 Y132.869 E.01368
G1 X145.28 Y132.887 E.01469
G1 X114.981 Y132.887 E1.10548
G1 X114.81 Y132.859 E.00634
G1 X114.693 Y132.818 E.00451
G1 X114.521 Y132.715 E.00734
G1 X114.412 Y132.57 E.00661
G1 X114.337 Y132.416 E.00626
G1 X114.284 Y132.186 E.0086
G1 X114.284 Y122.808 E.34216
G1 X114.353 Y122.52 E.01081
G1 X114.436 Y122.382 E.00588
G1 X114.79 Y122.656 F21000
G1 F2700
G1 X114.97 Y122.568 E.0073
G1 X145.283 Y122.569 E1.106
G1 X145.666 Y122.586 E.01398
G1 X146.012 Y122.633 E.01273
G1 X146.145 Y122.701 E.00544
G1 X146.209 Y122.86 E.00625
G1 X146.209 Y132.141 E.33866
G1 X146.16 Y132.282 E.00544
G1 X146.01 Y132.368 E.00632
G1 X145.666 Y132.412 E.01263
G1 X145.283 Y132.43 E.014
G1 X114.97 Y132.43 E1.106
G1 X114.829 Y132.382 E.00544
G1 X114.741 Y132.202 E.0073
G1 X114.741 Y122.797 E.34314
G1 X114.777 Y122.694 E.00398
;WIPE_START
G1 X114.97 Y122.568 E-.23013
G1 X116.74 Y122.568 E-1.76987
;WIPE_END
G1 X145.271 Y123.147 F21000
G1 E2 F3600
;TYPE:Outer wall
G1 F2700
G1 X145.63 Y123.174 E.01312
G1 X145.63 Y131.826 E.31569
G1 X145.273 Y131.851 E.01307
G1 X115.32 Y131.852 E1.09286
G1 X115.32 Y123.147 E.3176
G1 X145.231 Y123.147 E1.09136
G1 X145.173 Y123.604 F21000
;TYPE:Inner wall
G1 F2700
G1 X145.173 Y131.394 E.28421
G1 X115.777 Y131.395 E1.07255
G1 X115.777 Y123.604 E.28425
G1 X145.133 Y123.604 E1.07109
;WIPE_START
G1 X145.143 Y125.604 E-2
;WIPE_END
G1 X144.098 Y123.742 F21000
G1 E2 F3600
;TYPE:Bottom surface
;WIDTH:0.506695
;MM3_PER_MM:0.092755
G1 F2700
G1 X144.83 Y124.474 E.03835
G1 X144.83 Y125.13 E.02428
G1 X143.648 Y123.947 E.06192
G1 X142.992 Y123.947 E.02428
G1 X144.83 Y125.786 E.09626
G1 X144.83 Y126.442 E.02428
G1 X142.336 Y123.947 E.1306
G1 X141.68 Y123.947 E.02428
G1 X144.83 Y127.098 E.16494
G1 X144.83 Y127.753 E.02428
G1 X141.024 Y123.947 E.19928
G1 X140.368 Y123.947 E.02428
G1 X144.83 Y128.409 E.23362
G1 X144.83 Y129.065 E.02428
G1 X139.712 Y123.947 E.26795
G1 X139.056 Y123.947 E.02428
G1 X144.83 Y129.721 E.30229
G1 X144.83 Y130.377 E.02428
G1 X138.4 Y123.947 E.33663
G1 X137.745 Y123.947 E.02428
G1 X144.83 Y131.033 E.37097
G1 X144.83 Y131.051 E.00068
G1 X144.193 Y131.051 E.0236
G1 X137.089 Y123.947 E.37193
G1 X136.433 Y123.947 E.02428
G1 X143.537 Y131.051 E.37194
G1 X142.881 Y131.051 E.02428
G1 X135.777 Y123.947 E.37194
G1 X135.121 Y123.947 E.02428
G1 X142.225 Y131.051 E.37194
G1 X141.569 Y131.051 E.02428
G1 X134.465 Y123.947 E.37194
G1 X133.809 Y123.947 E.02428
G1 X140.913 Y131.051 E.37194
G1 X140.258 Y131.051 E.02428
G1 X133.153 Y123.947 E.37194
G1 X132.497 Y123.947 E.02428
G1 X139.602 Y131.051 E.37194
G1 X138.946 Y131.051 E.02428
G1 X131.842 Y123.947 E.37194
G1 X131.186 Y123.947 E.02428
G1 X138.29 Y131.051 E.37195
G1 X137.634 Y131.051 E.02428
G1 X130.53 Y123.947 E.37195
G1 X129.874 Y123.947 E.02428
G1 X136.978 Y131.051 E.37195
G1 X136.322 Y131.051 E.02428
G1 X129.218 Y123.947 E.37195
G1 X128.562 Y123.947 E.02428
G1 X135.667 Y131.051 E.37195
G1 X135.011 Y131.051 E.02428
G1 X127.906 Y123.947 E.37195
G1 X127.25 Y123.947 E.02428
G1 X134.355 Y131.051 E.37195
G1 X133.699 Y131.051 E.02428
G1 X126.594 Y123.947 E.37195
G1 X125.939 Y123.947 E.02428
G1 X133.043 Y131.051 E.37196
G1 X132.387 Y131.051 E.02428
G1 X125.283 Y123.947 E.37196
G1 X124.627 Y123.947 E.02428
G1 X131.731 Y131.051 E.37196
G1 X131.076 Y131.051 E.02428
