; HEADER_BLOCK_START
; generated by AnycubicSlicerNext 1.3.4.0 on 2025-10-03 at 19:58:59
; total layer number: 450
; filament_density: 1.24
; filament_diameter: 1.75
; max_z_height: 90.00
; exclude_object: 1
; model_instances: 1
; HEADER_BLOCK_END

; THUMBNAIL_BLOCK_START
; THUMBNAIL_BLOCK_END

; THUMBNAIL_BLOCK_START
; THUMBNAIL_BLOCK_END

; external perimeters extrusion width = 0.42mm
; perimeters extrusion width = 0.45mm
; infill extrusion width = 0.45mm
; solid infill extrusion width = 0.42mm
; top infill extrusion width = 0.42mm
; first layer extrusion width = 0.50mm

; EXECUTABLE_BLOCK_START
EXCLUDE_OBJECT_DEFINE NAME=temperature_tower.stl_id_0_copy_0 CENTER=127.5,127.5 POLYGON=[[105.257,122.501],[149.743,122.501],[149.743,132.499],[105.257,132.499],[105.257,122.501]]
;TYPE:Custom
G9111 bedTemp=60 extruderTemp=230
M117
M900 K0.051
T0
G90
G21
M83 ; use relative distances for extrusion
; filament start gcode
M106 S0
;LAYER_CHANGE
;Z:0.2
;HEIGHT:0.2
; BEFORE_LAYER_CHANGE 0 @ 0.2mm
G1 E-2 F3600
; AFTER_LAYER_CHANGE 0 @ 0.2mm
M104 S230 ; set nozzle temperature
M204 P500
SET_VELOCITY_LIMIT SQUARE_CORNER_VELOCITY=9
; printing object "temperature_tower.stl" id:0 copy 0
EXCLUDE_OBJECT_START NAME=temperature_tower.stl_id_0_copy_0
M204 T500
G1 X112.235 Y119.43 F21000
G1 Z.2
G1 E2 F3600
;TYPE:Brim
;WIDTH:0.5
;MM3_PER_MM:0.091416
G1 F2700
G1 X112.761 Y119.063 E.02341
G1 X113.336 Y118.777 E.02341
G1 X113.947 Y118.58 E.02341
G1 X114.583 Y118.474 E.02353
G1 X114.981 Y118.455 E.01453
G1 X145.474 Y118.459 E1.11259
G1 X146.151 Y118.5 E.02474
G1 X146.733 Y118.582 E.02142
G1 X147.445 Y118.772 E.02691
G1 X148.031 Y119.032 E.02338
G1 X148.573 Y119.376 E.02341
G1 X149.058 Y119.796 E.02341
G1 X149.475 Y120.283 E.02341
G1 X149.817 Y120.827 E.02341
G1 X150.075 Y121.414 E.02341
G1 X150.242 Y122.031 E.02332
G1 X150.323 Y122.87 E.03073
G1 X150.323 Y132.132 E.33795
G1 X150.274 Y132.781 E.02372
G1 X150.133 Y133.407 E.02341
G1 X149.901 Y134.005 E.02341
G1 X149.584 Y134.563 E.02341
G1 X149.187 Y135.067 E.02341
G1 X148.721 Y135.508 E.02341
G1 X148.194 Y135.875 E.02341
G1 X147.623 Y136.159 E.02327
G1 X146.71 Y136.422 E.03468
G1 X145.976 Y136.511 E.02696
G1 X145.28 Y136.541 E.02543
G1 X114.984 Y136.54 E1.10538
G1 X114.335 Y136.492 E.02372
G1 X113.709 Y136.35 E.02341
G1 X113.111 Y136.118 E.02341
G1 X112.554 Y135.801 E.02342
G1 X112.049 Y135.404 E.02341
G1 X111.608 Y134.938 E.02341
G1 X111.241 Y134.412 E.02341
G1 X110.955 Y133.837 E.02341
G1 X110.758 Y133.226 E.02341
G1 X110.652 Y132.59 E.02353
G1 X110.633 Y132.192 E.01453
G1 X110.633 Y122.806 E.34247
G1 X110.681 Y122.158 E.02372
G1 X110.823 Y121.532 E.02341
G1 X111.055 Y120.933 E.02341
G1 X111.372 Y120.376 E.02341
G1 X111.769 Y119.871 E.02341
G1 X112.206 Y119.458 E.02196
G1 X112.52 Y119.792 F21000
G1 F2700
G1 X112.533 Y119.78 E.00063
G1 X112.987 Y119.463 E.0202
G1 X113.5 Y119.206 E.02094
G1 X114.065 Y119.023 E.02168
G1 X114.623 Y118.93 E.02063
G1 X114.994 Y118.912 E.01356
G1 X145.456 Y118.916 E1.11144
G1 X146.1 Y118.955 E.02354
G1 X146.633 Y119.029 E.01964
G1 X147.282 Y119.202 E.02449
G1 X147.805 Y119.432 E.02085
G1 X148.29 Y119.738 E.02094
G1 X148.725 Y120.113 E.02094
G1 X149.112 Y120.564 E.02168
G1 X149.406 Y121.033 E.0202
G1 X149.638 Y121.558 E.02094
G1 X149.792 Y122.125 E.02146
G1 X149.865 Y122.898 E.02833
G1 X149.865 Y132.11 E.33611
G1 X149.819 Y132.723 E.02242
G1 X149.691 Y133.282 E.02094
G1 X149.491 Y133.799 E.0202
G1 X149.197 Y134.315 E.02168
G1 X148.855 Y134.75 E.0202
G1 X148.439 Y135.146 E.02094
G1 X147.969 Y135.475 E.02094
G1 X147.468 Y135.726 E.02043
G1 X146.607 Y135.974 E.03268
G1 X145.933 Y136.056 E.02478
G1 X145.267 Y136.084 E.02432
G1 X114.996 Y136.082 E1.10449
G1 X114.413 Y136.039 E.02131
G1 X113.853 Y135.914 E.02094
G1 X113.317 Y135.708 E.02094
G1 X112.818 Y135.425 E.02094
G1 X112.366 Y135.072 E.02094
G1 X111.971 Y134.656 E.02094
G1 X111.641 Y134.186 E.02094
G1 X111.384 Y133.673 E.02094
G1 X111.201 Y133.108 E.02168
G1 X111.108 Y132.55 E.02063
G1 X111.09 Y132.179 E.01356
G1 X111.09 Y122.828 E.34117
G1 X111.134 Y122.235 E.02168
G1 X111.265 Y121.656 E.02168
G1 X111.474 Y121.121 E.02094
G1 X111.759 Y120.623 E.02094
G1 X112.115 Y120.173 E.02094
G1 X112.491 Y119.819 E.01885
G1 X112.804 Y120.152 F21000
G1 F2700
G1 X112.814 Y120.143 E.00052
G1 X113.213 Y119.863 E.01777
G1 X113.664 Y119.635 E.01845
G1 X114.184 Y119.467 E.01992
G1 X114.664 Y119.387 E.01775
G1 X115.008 Y119.369 E.0126
G1 X145.438 Y119.373 E1.11026
G1 X146.05 Y119.41 E.02234
G1 X146.535 Y119.477 E.01787
G1 X147.12 Y119.631 E.02209
G1 X147.58 Y119.832 E.01832
G1 X148.009 Y120.101 E.01846
G1 X148.407 Y120.445 E.01919
G1 X148.748 Y120.844 E.01917
G1 X149.006 Y121.257 E.01774
G1 X149.202 Y121.701 E.01772
G1 X149.342 Y122.219 E.01957
G1 X149.408 Y122.926 E.02593
G1 X149.408 Y132.088 E.33426
G1 X149.363 Y132.664 E.0211
G1 X149.255 Y133.138 E.01775
G1 X149.081 Y133.592 E.01774
G1 X148.81 Y134.067 E.01994
G1 X148.509 Y134.449 E.01774
G1 X148.14 Y134.797 E.01849
G1 X147.743 Y135.076 E.01773
G1 X147.313 Y135.292 E.01757
G1 X146.505 Y135.526 E.03067
G1 X145.891 Y135.6 E.02258
G1 X145.255 Y135.627 E.02321
G1 X115.008 Y135.625 E1.1036
G1 X114.49 Y135.587 E.01893
G1 X113.995 Y135.478 E.01848
G1 X113.523 Y135.297 E.01846
G1 X113.082 Y135.049 E.01846
G1 X112.682 Y134.739 E.01846
G1 X112.332 Y134.373 E.01846
G1 X112.04 Y133.96 E.01846
G1 X111.813 Y133.509 E.01843
G1 X111.645 Y132.989 E.01992
G1 X111.565 Y132.509 E.01775
G1 X111.547 Y132.165 E.0126
G1 X111.547 Y122.85 E.33986
G1 X111.587 Y122.313 E.01964
G1 X111.707 Y121.78 E.01992
G1 X111.892 Y121.31 E.01843
G1 X112.145 Y120.872 E.01846
G1 X112.46 Y120.476 E.01846
G1 X112.775 Y120.18 E.01578
G1 X113.088 Y120.515 F21000
G1 F2700
G1 X113.112 Y120.492 E.00119
G1 X113.457 Y120.251 E.01537
G1 X113.849 Y120.056 E.01597
G1 X114.303 Y119.91 E.01739
G1 X114.705 Y119.843 E.01489
G1 X115.023 Y119.827 E.01163
G1 X145.42 Y119.83 E1.10907
G1 X145.999 Y119.865 E.02115
G1 X146.437 Y119.925 E.01611
G1 X146.959 Y120.062 E.01972
G1 X147.357 Y120.234 E.0158
G1 X147.728 Y120.465 E.01595
G1 X148.074 Y120.761 E.01663
G1 X148.384 Y121.124 E.0174
G1 X148.596 Y121.463 E.01459
G1 X148.765 Y121.844 E.01523
G1 X148.891 Y122.312 E.01768
G1 X148.951 Y122.954 E.02354
G1 X148.951 Y132.065 E.33239
G1 X148.911 Y132.585 E.01906
G1 X148.819 Y132.995 E.01534
G1 X148.67 Y133.386 E.01527
G1 X148.424 Y133.819 E.01816
G1 X148.164 Y134.146 E.01525
G1 X147.858 Y134.435 E.01534
G1 X147.515 Y134.677 E.0153
G1 X147.156 Y134.859 E.0147
G1 X146.403 Y135.078 E.02862
G1 X145.848 Y135.144 E.02038
G1 X145.242 Y135.17 E.02212
G1 X115.02 Y135.167 E1.10272
G1 X114.566 Y135.134 E.01658
G1 X114.137 Y135.041 E.01604
G1 X113.727 Y134.886 E.01599
G1 X113.344 Y134.673 E.01599
G1 X112.997 Y134.405 E.01599
G1 X112.693 Y134.089 E.01599
G1 X112.439 Y133.732 E.01599
G1 X112.234 Y133.324 E.01666
G1 X112.088 Y132.87 E.01739
G1 X112.021 Y132.468 E.01489
G1 X112.005 Y132.15 E.01163
G1 X112.005 Y122.871 E.33853
G1 X112.039 Y122.39 E.0176
G1 X112.149 Y121.905 E.01814
G1 X112.31 Y121.501 E.0159
G1 X112.53 Y121.122 E.01599
G1 X112.804 Y120.779 E.016
G1 X113.058 Y120.542 E.01269
G1 X113.37 Y120.878 F21000
G1 F2700
G1 X113.408 Y120.843 E.00188
G1 X113.7 Y120.641 E.01297
G1 X114.032 Y120.477 E.01349
G1 X114.42 Y120.354 E.01488
G1 X114.747 Y120.3 E.01209
G1 X115.039 Y120.284 E.01066
G1 X145.403 Y120.287 E1.10785
G1 X145.949 Y120.32 E.01997
G1 X146.339 Y120.373 E.01437
G1 X146.8 Y120.492 E.01737
G1 X147.135 Y120.636 E.01329
G1 X147.448 Y120.829 E.01343
G1 X147.757 Y121.093 E.01482
G1 X148.02 Y121.403 E.01483
G1 X148.195 Y121.687 E.01216
G1 X148.329 Y121.988 E.01202
G1 X148.441 Y122.405 E.01576
G1 X148.494 Y122.982 E.02115
G1 X148.494 Y132.042 E.33055
G1 X148.459 Y132.507 E.01704
G1 X148.382 Y132.854 E.01294
G1 X148.259 Y133.181 E.01275
G1 X148.037 Y133.57 E.01635
G1 X147.819 Y133.843 E.01274
G1 X147.56 Y134.086 E.01297
G1 X147.27 Y134.289 E.01292
G1 X146.975 Y134.436 E.01201
G1 X146.3 Y134.629 E.02562
G1 X145.806 Y134.688 E.01817
G1 X145.23 Y134.712 E.02103
G1 X115.031 Y134.71 E1.10183
G1 X114.622 Y134.678 E.01496
G1 X114.257 Y134.598 E.01366
G1 X113.911 Y134.465 E.01352
G1 X113.588 Y134.284 E.01351
G1 X113.296 Y134.056 E.01351
G1 X113.04 Y133.789 E.01351
G1 X112.827 Y133.486 E.01349
G1 X112.655 Y133.14 E.0141
G1 X112.532 Y132.753 E.01484
G1 X112.478 Y132.426 E.01209
G1 X112.462 Y132.134 E.01066
G1 X112.462 Y122.893 E.33718
G1 X112.492 Y122.468 E.01554
G1 X112.591 Y122.031 E.01634
G1 X112.727 Y121.692 E.01333
G1 X112.915 Y121.373 E.01351
G1 X113.148 Y121.084 E.01355
G1 X113.341 Y120.905 E.00959
G1 X113.647 Y121.26 F21000
G1 F2700
G1 X113.753 Y121.168 E.00515
G1 X114.094 Y120.968 E.01441
G1 X114.612 Y120.796 E.01991
G1 X115.017 Y120.741 E.01491
G1 X145.271 Y120.74 E1.10384
G1 X145.933 Y120.777 E.0242
G1 X146.289 Y120.829 E.01314
G1 X146.573 Y120.903 E.01072
G1 X147.132 Y121.178 E.0227
G1 X147.235 Y121.248 E.00455
G1 X147.429 Y121.42 E.00946
G1 X147.615 Y121.638 E.01046
G1 X147.758 Y121.872 E.00999
G1 X147.905 Y122.206 E.01334
G1 X148.018 Y122.698 E.01842
G1 X148.037 Y132.096 E.3429
G1 X147.939 Y132.705 E.02251
G1 X147.905 Y132.82 E.00434
G1 X147.75 Y133.158 E.0136
G1 X147.529 Y133.469 E.01391
G1 X147.309 Y133.684 E.0112
G1 X146.96 Y133.924 E.01546
G1 X146.694 Y134.05 E.01072
G1 X146.261 Y134.172 E.01644
G1 X145.81 Y134.23 E.01658
G1 X145.354 Y134.253 E.01667
G1 X115.021 Y134.254 E1.10674
G1 X114.299 Y134.123 E.02678
G1 X114.063 Y134.023 E.00936
G1 X113.868 Y133.914 E.00815
G1 X113.477 Y133.58 E.01877
G1 X113.401 Y133.495 E.00415
G1 X113.237 Y133.248 E.01082
G1 X113.086 Y132.939 E.01254
G1 X112.968 Y132.544 E.01503
G1 X112.929 Y132.307 E.00878
G1 X112.919 Y122.846 E.34521
G1 X113.012 Y122.27 E.02128
G1 X113.114 Y121.963 E.01179
G1 X113.263 Y121.684 E.01154
G1 X113.499 Y121.387 E.01386
G1 X113.616 Y121.286 E.00564
G1 X113.901 Y121.637 F21000
G1 F2700
G1 X114.048 Y121.517 E.00691
G1 X114.327 Y121.361 E.01166
G1 X114.756 Y121.23 E.01636
G1 X115.008 Y121.198 E.00927
G1 X145.274 Y121.197 E1.10432
G1 X145.867 Y121.229 E.02165
G1 X146.167 Y121.27 E.01104
G1 X146.472 Y121.349 E.0115
G1 X146.927 Y121.586 E.01872
G1 X147.135 Y121.769 E.01012
G1 X147.264 Y121.93 E.00751
G1 X147.336 Y122.048 E.00503
G1 X147.492 Y122.402 E.01414
G1 X147.573 Y122.801 E.01483
G1 X147.58 Y132.108 E.33958
G1 X147.488 Y132.633 E.01947
G1 X147.373 Y132.899 E.01057
G1 X147.218 Y133.133 E.01024
G1 X146.982 Y133.365 E.01208
G1 X146.704 Y133.545 E.01206
G1 X146.501 Y133.636 E.00812
G1 X146.135 Y133.733 E.01381
G1 X145.755 Y133.777 E.01397
G1 X145.329 Y133.797 E.01556
G1 X115.009 Y133.797 E1.10627
G1 X114.481 Y133.705 E.01953
G1 X114.293 Y133.628 E.00742
G1 X114.08 Y133.509 E.00891
G1 X113.778 Y133.237 E.01481
G1 X113.652 Y133.057 E.00802
G1 X113.493 Y132.729 E.01329
G1 X113.407 Y132.418 E.01177
G1 X113.38 Y132.231 E.0069
G1 X113.376 Y122.835 E.34285
G1 X113.463 Y122.341 E.01829
G1 X113.546 Y122.111 E.00892
G1 X113.665 Y121.9 E.00885
G1 X113.855 Y121.674 E.01077
G1 X113.87 Y121.662 E.00069
G1 X114.2 Y121.974 F21000
G1 F2700
G1 X114.326 Y121.88 E.00574
G1 X114.552 Y121.759 E.00937
G1 X114.884 Y121.668 E.01254
G1 X114.999 Y121.655 E.00423
G1 X145.278 Y121.654 E1.10477
G1 X145.8 Y121.681 E.01907
G1 X146.113 Y121.724 E.01154
G1 X146.355 Y121.791 E.00914
G1 X146.635 Y121.937 E.01153
G1 X146.772 Y122.047 E.00639
G1 X146.914 Y122.223 E.00827
G1 X147.077 Y122.595 E.0148
G1 X147.123 Y122.883 E.01065
G1 X147.123 Y132.118 E.33694
G1 X147.066 Y132.457 E.01255
G1 X146.984 Y132.66 E.00801
G1 X146.893 Y132.813 E.00648
G1 X146.736 Y132.979 E.00836
G1 X146.509 Y133.132 E.00999
G1 X146.382 Y133.194 E.00515
G1 X146.094 Y133.278 E.01095
G1 X145.699 Y133.323 E.0145
G1 X145.306 Y133.341 E.01436
G1 X114.998 Y133.34 E1.10579
G1 X114.659 Y133.283 E.01255
G1 X114.456 Y133.201 E.00801
G1 X114.304 Y133.111 E.00646
G1 X114.152 Y132.973 E.00747
G1 X114.058 Y132.847 E.00574
G1 X113.937 Y132.621 E.00937
G1 X113.846 Y132.289 E.01254
G1 X113.833 Y132.174 E.00423
G1 X113.833 Y122.823 E.3412
G1 X113.913 Y122.422 E.0149
G1 X113.972 Y122.278 E.00568
G1 X114.062 Y122.126 E.00646
G1 X114.173 Y122.003 E.00601
G1 X114.462 Y122.348 F21000
G1 F2700
G1 X114.607 Y122.24 E.00661
G1 X114.761 Y122.165 E.00626
G1 X114.991 Y122.112 E.0086
G1 X145.282 Y122.111 E1.10518
G1 X145.733 Y122.134 E.01649
G1 X146.061 Y122.178 E.01209
G1 X146.229 Y122.23 E.00639
G1 X146.339 Y122.286 E.0045
G1 X146.498 Y122.413 E.00743
G1 X146.628 Y122.675 E.01067
G1 X146.666 Y122.872 E.00732
G1 X146.666 Y132.129 E.33775
G1 X146.637 Y132.3 E.00634
G1 X146.597 Y132.417 E.00451
G1 X146.493 Y132.592 E.00742
G1 X146.245 Y132.759 E.01088
G1 X146.051 Y132.823 E.00747
G1 X145.683 Y132.866 E.01352
G1 X145.282 Y132.884 E.01464
G1 X114.987 Y132.883 E1.10534
G1 X114.816 Y132.854 E.00634
G1 X114.699 Y132.814 E.00451
G1 X114.526 Y132.711 E.00734
G1 X114.418 Y132.566 E.00661
G1 X114.343 Y132.412 E.00626
G1 X114.29 Y132.182 E.0086
G1 X114.29 Y122.809 E.34198
G1 X114.359 Y122.521 E.01081
G1 X114.441 Y122.383 E.00588
G1 X114.796 Y122.657 F21000
G1 F2700
G1 X114.976 Y122.569 E.0073
G1 X145.285 Y122.568 E1.10587
G1 X145.666 Y122.586 E.01391
G1 X146.012 Y122.632 E.01272
G1 X146.144 Y122.7 E.00544
G1 X146.209 Y122.859 E.00625
G1 X146.209 Y132.141 E.33865
G1 X146.16 Y132.282 E.00544
G1 X146.008 Y132.367 E.00636
G1 X145.666 Y132.409 E.01258
G1 X145.285 Y132.427 E.01393
G1 X114.976 Y132.426 E1.10587
G1 X114.835 Y132.377 E.00544
G1 X114.747 Y132.198 E.0073
G1 X114.747 Y122.798 E.34297
G1 X114.783 Y122.694 E.00398
;WIPE_START
G1 X114.976 Y122.569 E-.23013
G1 X116.745 Y122.569 E-1.76987
;WIPE_END
G1 X119.554 Y123.483 F21000
G1 X144.448 Y131.513
G1 X144.243 Y131.513
G1 X145.275 Y131.849
G1 E2 F3600
;TYPE:Outer wall
G1 F2700
G1 X115.326 Y131.848 E1.09274
G1 X115.326 Y123.148 E.31743
G1 X145.409 Y123.153 E1.09764
G1 X145.63 Y123.171 E.00809
G1 X145.63 Y131.824 E.31572
G1 X145.315 Y131.846 E.01153
G1 X145.173 Y131.391 F21000
;TYPE:Inner wall
G1 F2700
G1 X115.783 Y131.391 E1.07234
G1 X115.783 Y123.605 E.28407
G1 X145.173 Y123.61 E1.07234
G1 X145.173 Y131.351 E.28246
;WIPE_START
G1 X143.173 Y131.354 E-2
;WIPE_END
G1 X144.098 Y123.747 F21000
G1 E2 F3600
;TYPE:Bottom surface
;WIDTH:0.506504
;MM3_PER_MM:0.092717
G1 F2700
G1 X144.83 Y124.479 E.03832
G1 X144.83 Y125.135 E.02426
G1 X143.648 Y123.952 E.06187
G1 X142.992 Y123.952 E.02427
G1 X144.83 Y125.79 E.09619
G1 X144.83 Y126.446 E.02426
G1 X142.337 Y123.952 E.1305
G1 X141.681 Y123.952 E.02427
G1 X144.83 Y127.102 E.16482
G1 X144.83 Y127.757 E.02426
G1 X141.025 Y123.952 E.19914
G1 X140.37 Y123.952 E.02427
G1 X144.83 Y128.413 E.23345
G1 X144.83 Y129.068 E.02426
G1 X139.714 Y123.952 E.26777
G1 X139.058 Y123.952 E.02427
G1 X144.83 Y129.724 E.30208
G1 X144.83 Y130.38 E.02426
G1 X138.402 Y123.952 E.3364
G1 X137.747 Y123.951 E.02427
G1 X144.83 Y131.049 E.37107
G1 X144.188 Y131.049 E.02376
G1 X137.091 Y123.951 E.37142
G1 X136.435 Y123.951 E.02427
G1 X143.533 Y131.049 E.37143
G1 X142.877 Y131.049 E.02426
G1 X135.779 Y123.951 E.37143
G1 X135.124 Y123.951 E.02427
G1 X142.221 Y131.049 E.37144
G1 X141.566 Y131.049 E.02426
G1 X134.468 Y123.951 E.37144
G1 X133.812 Y123.951 E.02427
G1 X140.91 Y131.048 E.37145
G1 X140.254 Y131.048 E.02426
G1 X133.157 Y123.951 E.37145
G1 X132.501 Y123.951 E.02427
G1 X139.599 Y131.048 E.37146
G1 X138.943 Y131.048 E.02426
G1 X131.845 Y123.95 E.37146
G1 X131.189 Y123.95 E.02427
G1 X138.288 Y131.048 E.37147
G1 X137.632 Y131.048 E.02426
G1 X130.534 Y123.95 E.37147
G1 X129.878 Y123.95 E.02427
G1 X136.976 Y131.048 E.37148
G1 X136.321 Y131.048 E.02426
G1 X129.222 Y123.95 E.37148
G1 X128.567 Y123.95 E.02427
G1 X135.665 Y131.048 E.37149
G1 X135.009 Y131.048 E.02426
G1 X127.911 Y123.95 E.37149
G1 X127.255 Y123.95 E.02427
G1 X134.354 Y131.048 E.3715
G1 X133.698 Y131.048 E.02426
G1 X126.599 Y123.949 E.3715
G1 X125.944 Y123.949 E.02427
G1 X133.043 Y131.048 E.37151
G1 X132.387 Y131.048 E.02426
G1 X125.288 Y123.949 E.37151
G1 X124.632 Y123.949 E.02427
G1 X131.731 Y131.048 E.37152
G1 X131.076 Y131.048 E.02426
G1 X123.976 Y123.949 E.37152
G1 X123.321 Y123.949 E.02427
G1 X130.42 Y131.048 E.37153
G1 X129.764 Y131.048 E.02426
G1 X122.665 Y123.949 E.37153
