; HEADER_BLOCK_START
; generated by AnycubicSlicerNext 1.3.4.0 on 2025-10-03 at 20:02:36
; total layer number: 350
; filament_density: 1.24
; filament_diameter: 1.75
; max_z_height: 70.00
; exclude_object: 1
; model_instances: 1
; HEADER_BLOCK_END

; THUMBNAIL_BLOCK_START
; THUMBNAIL_BLOCK_END

; THUMBNAIL_BLOCK_START
; THUMBNAIL_BLOCK_END

; external perimeters extrusion width = 0.42mm
; perimeters extrusion width = 0.45mm
; infill extrusion width = 0.45mm
; solid infill extrusion width = 0.42mm
; top infill extrusion width = 0.42mm
; first layer extrusion width = 0.50mm

; EXECUTABLE_BLOCK_START
EXCLUDE_OBJECT_DEFINE NAME=temperature_tower.stl_id_0_copy_0 CENTER=127.5,127.5 POLYGON=[[105.257,122.501],[149.743,122.501],[149.743,132.499],[105.257,132.499],[105.257,122.501]]
;TYPE:Custom
G9111 bedTemp=60 extruderTemp=240
M117
M900 K0.051
T0
G90
G21
M83 ; use relative distances for extrusion
; filament start gcode
M106 S0
;LAYER_CHANGE
;Z:0.2
;HEIGHT:0.2
; BEFORE_LAYER_CHANGE 0 @ 0.2mm
G1 E-2 F3600
; AFTER_LAYER_CHANGE 0 @ 0.2mm
M104 S240 ; set nozzle temperature
M204 P500
SET_VELOCITY_LIMIT SQUARE_CORNER_VELOCITY=9
; printing object "temperature_tower.stl" id:0 copy 0
EXCLUDE_OBJECT_START NAME=temperature_tower.stl_id_0_copy_0
M204 T500
G1 X112.231 Y119.428 F21000
G1 Z.2
G1 E2 F3600
;TYPE:Brim
;WIDTH:0.5
;MM3_PER_MM:0.091416
G1 F2700
G1 X112.757 Y119.06 E.02341
G1 X113.332 Y118.775 E.02341
G1 X113.942 Y118.577 E.02341
G1 X114.578 Y118.471 E.02353
G1 X114.976 Y118.453 E.01454
G1 X145.279 Y118.453 E1.10561
G1 X145.849 Y118.475 E.0208
G1 X146.405 Y118.529 E.02041
G1 X146.775 Y118.589 E.01368
G1 X147.401 Y118.755 E.02362
G1 X147.991 Y119.008 E.02341
G1 X148.536 Y119.346 E.02341
G1 X149.026 Y119.761 E.02341
G1 X149.449 Y120.243 E.02341
G1 X149.797 Y120.783 E.02341
G1 X150.061 Y121.368 E.02341
G1 X150.235 Y121.982 E.0233
G1 X150.325 Y122.87 E.03255
G1 X150.325 Y132.133 E.33798
G1 X150.277 Y132.781 E.02372
G1 X150.136 Y133.407 E.02341
G1 X149.904 Y134.006 E.02341
G1 X149.586 Y134.563 E.02341
G1 X149.19 Y135.068 E.02341
G1 X148.724 Y135.509 E.02341
G1 X148.197 Y135.876 E.02341
G1 X147.626 Y136.16 E.02328
G1 X146.723 Y136.421 E.0343
G1 X145.976 Y136.514 E.02745
G1 X145.278 Y136.544 E.0255
G1 X114.98 Y136.544 E1.10547
G1 X114.331 Y136.496 E.02372
G1 X113.705 Y136.355 E.02341
G1 X113.107 Y136.123 E.02341
G1 X112.549 Y135.805 E.02341
G1 X112.045 Y135.409 E.02341
G1 X111.604 Y134.942 E.02341
G1 X111.237 Y134.416 E.02341
G1 X110.951 Y133.841 E.02341
G1 X110.753 Y133.231 E.02341
G1 X110.647 Y132.594 E.02353
G1 X110.629 Y132.196 E.01454
G1 X110.629 Y122.803 E.34271
G1 X110.677 Y122.155 E.02372
G1 X110.818 Y121.529 E.02341
G1 X111.05 Y120.931 E.02341
G1 X111.368 Y120.373 E.02341
G1 X111.764 Y119.868 E.02341
G1 X112.202 Y119.455 E.02196
G1 X112.516 Y119.789 F21000
G1 F2700
G1 X112.528 Y119.777 E.00063
G1 X112.982 Y119.46 E.0202
G1 X113.496 Y119.204 E.02094
G1 X114.061 Y119.021 E.02168
G1 X114.618 Y118.928 E.02063
G1 X114.99 Y118.91 E.01357
G1 X145.268 Y118.91 E1.10471
G1 X145.814 Y118.931 E.01993
G1 X146.351 Y118.983 E.01969
G1 X146.687 Y119.038 E.01243
G1 X147.242 Y119.185 E.02094
G1 X147.769 Y119.411 E.02094
G1 X148.258 Y119.712 E.02094
G1 X148.697 Y120.081 E.02094
G1 X149.089 Y120.528 E.02168
G1 X149.398 Y121.011 E.02094
G1 X149.626 Y121.516 E.0202
G1 X149.786 Y122.08 E.0214
G1 X149.868 Y122.9 E.03005
G1 X149.868 Y132.111 E.33608
G1 X149.822 Y132.724 E.02242
G1 X149.694 Y133.283 E.02094
G1 X149.494 Y133.799 E.0202
G1 X149.2 Y134.316 E.02168
G1 X148.858 Y134.751 E.0202
G1 X148.442 Y135.146 E.02094
G1 X147.972 Y135.476 E.02094
G1 X147.471 Y135.727 E.02045
G1 X146.62 Y135.973 E.03231
G1 X145.944 Y136.058 E.02486
G1 X145.266 Y136.087 E.02477
G1 X114.991 Y136.086 E1.10458
G1 X114.409 Y136.043 E.02132
G1 X113.849 Y135.918 E.02094
G1 X113.313 Y135.712 E.02094
G1 X112.814 Y135.43 E.02094
G1 X112.361 Y135.076 E.02094
G1 X111.966 Y134.66 E.02094
G1 X111.637 Y134.19 E.02094
G1 X111.38 Y133.677 E.02094
G1 X111.197 Y133.112 E.02168
G1 X111.104 Y132.554 E.02063
G1 X111.086 Y132.183 E.01357
G1 X111.086 Y122.825 E.34141
G1 X111.13 Y122.233 E.02168
G1 X111.26 Y121.653 E.02168
G1 X111.469 Y121.119 E.02094
G1 X111.755 Y120.621 E.02094
G1 X112.11 Y120.17 E.02094
G1 X112.486 Y119.817 E.01885
G1 X112.8 Y120.15 F21000
G1 F2700
G1 X112.81 Y120.14 E.00052
G1 X113.208 Y119.86 E.01777
G1 X113.66 Y119.633 E.01845
G1 X114.179 Y119.464 E.01992
G1 X114.659 Y119.384 E.01775
G1 X115.004 Y119.367 E.0126
G1 X145.257 Y119.367 E1.10379
G1 X145.79 Y119.388 E.01948
G1 X146.598 Y119.487 E.02969
G1 X147.102 Y119.622 E.01904
G1 X147.549 Y119.814 E.01775
G1 X147.981 Y120.078 E.01846
G1 X148.383 Y120.417 E.01918
G1 X148.728 Y120.812 E.01916
G1 X148.99 Y121.221 E.01773
G1 X149.191 Y121.664 E.01773
G1 X149.336 Y122.178 E.01949
G1 X149.411 Y122.93 E.02756
G1 X149.411 Y132.088 E.33417
G1 X149.366 Y132.665 E.0211
G1 X149.258 Y133.139 E.01775
G1 X149.084 Y133.593 E.01774
G1 X148.813 Y134.068 E.01994
G1 X148.512 Y134.449 E.01774
G1 X148.143 Y134.797 E.01849
G1 X147.745 Y135.076 E.01773
G1 X147.315 Y135.294 E.0176
G1 X146.517 Y135.525 E.03032
G1 X145.9 Y135.602 E.02267
G1 X145.253 Y135.63 E.02363
G1 X115.003 Y135.629 E1.10369
G1 X114.486 Y135.591 E.01894
G1 X113.991 Y135.482 E.01848
G1 X113.518 Y135.302 E.01846
G1 X113.077 Y135.053 E.01846
G1 X112.678 Y134.743 E.01846
G1 X112.328 Y134.377 E.01846
G1 X112.036 Y133.964 E.01846
G1 X111.809 Y133.513 E.01843
G1 X111.64 Y132.993 E.01992
G1 X111.56 Y132.513 E.01775
G1 X111.543 Y132.169 E.0126
G1 X111.543 Y122.847 E.3401
G1 X111.582 Y122.31 E.01964
G1 X111.702 Y121.778 E.01992
G1 X111.888 Y121.308 E.01843
G1 X112.141 Y120.869 E.01846
G1 X112.455 Y120.473 E.01846
G1 X112.77 Y120.177 E.01578
G1 X113.083 Y120.512 F21000
G1 F2700
G1 X113.107 Y120.49 E.00119
G1 X113.453 Y120.249 E.01537
G1 X113.844 Y120.053 E.01597
G1 X114.298 Y119.908 E.01739
G1 X114.701 Y119.841 E.01489
G1 X115.019 Y119.824 E.01163
G1 X145.245 Y119.824 E1.10284
G1 X145.759 Y119.844 E.01876
G1 X146.519 Y119.94 E.02795
G1 X146.961 Y120.059 E.0167
G1 X147.347 Y120.226 E.01535
G1 X147.704 Y120.444 E.01525
G1 X148.053 Y120.737 E.01663
G1 X148.367 Y121.096 E.01739
G1 X148.582 Y121.432 E.01458
G1 X148.757 Y121.812 E.01523
G1 X148.887 Y122.275 E.01756
G1 X148.954 Y122.959 E.02508
G1 X148.954 Y132.065 E.33225
G1 X148.914 Y132.586 E.01906
G1 X148.822 Y132.996 E.01534
G1 X148.673 Y133.387 E.01527
G1 X148.427 Y133.82 E.01816
G1 X148.166 Y134.147 E.01525
G1 X147.861 Y134.435 E.01534
G1 X147.518 Y134.678 E.0153
G1 X147.158 Y134.861 E.01475
G1 X146.413 Y135.077 E.0283
G1 X145.856 Y135.146 E.02047
G1 X145.24 Y135.173 E.0225
G1 X115.015 Y135.171 E1.10279
G1 X114.562 Y135.138 E.01659
G1 X114.132 Y135.045 E.01604
G1 X113.722 Y134.89 E.01599
G1 X113.34 Y134.677 E.01599
G1 X112.993 Y134.409 E.01599
G1 X112.689 Y134.093 E.01599
G1 X112.435 Y133.736 E.01599
G1 X112.229 Y133.328 E.01666
G1 X112.084 Y132.875 E.01739
G1 X112.017 Y132.472 E.01489
G1 X112 Y132.154 E.01163
G1 X112 Y122.869 E.33877
G1 X112.035 Y122.388 E.0176
G1 X112.144 Y121.903 E.01814
G1 X112.306 Y121.498 E.0159
G1 X112.526 Y121.119 E.01599
G1 X112.8 Y120.777 E.016
G1 X113.054 Y120.539 E.01269
G1 X113.365 Y120.875 F21000
G1 F2700
G1 X113.403 Y120.84 E.00188
G1 X113.696 Y120.638 E.01297
G1 X114.027 Y120.475 E.01349
G1 X114.416 Y120.352 E.01488
G1 X114.743 Y120.297 E.01209
G1 X115.035 Y120.281 E.01067
G1 X145.234 Y120.282 E1.10185
G1 X145.728 Y120.301 E.01803
G1 X146.44 Y120.392 E.0262
G1 X146.819 Y120.496 E.01434
G1 X147.128 Y120.629 E.01227
G1 X147.428 Y120.811 E.01281
G1 X147.74 Y121.072 E.01484
G1 X148.006 Y121.379 E.01482
G1 X148.184 Y121.661 E.01216
G1 X148.322 Y121.96 E.01201
G1 X148.437 Y122.372 E.01561
G1 X148.497 Y122.988 E.0226
G1 X148.497 Y132.042 E.33035
G1 X148.462 Y132.508 E.01704
G1 X148.385 Y132.855 E.01294
G1 X148.262 Y133.182 E.01275
G1 X148.04 Y133.571 E.01635
G1 X147.822 Y133.844 E.01274
G1 X147.563 Y134.087 E.01297
G1 X147.273 Y134.29 E.01292
G1 X146.977 Y134.437 E.01207
G1 X146.31 Y134.63 E.02532
G1 X145.813 Y134.691 E.01826
G1 X145.228 Y134.715 E.02138
G1 X115.027 Y134.714 E1.1019
G1 X114.618 Y134.682 E.01497
G1 X114.253 Y134.602 E.01366
G1 X113.907 Y134.469 E.01352
G1 X113.584 Y134.288 E.01351
G1 X113.292 Y134.06 E.01351
G1 X113.036 Y133.793 E.01351
G1 X112.823 Y133.49 E.01349
G1 X112.651 Y133.145 E.0141
G1 X112.528 Y132.757 E.01484
G1 X112.473 Y132.43 E.01209
G1 X112.457 Y132.138 E.01066
G1 X112.457 Y122.89 E.33742
G1 X112.487 Y122.465 E.01554
G1 X112.586 Y122.029 E.01634
G1 X112.723 Y121.69 E.01333
G1 X112.91 Y121.37 E.01351
G1 X113.143 Y121.081 E.01355
G1 X113.336 Y120.903 E.00959
G1 X113.642 Y121.257 F21000
G1 F2700
G1 X113.749 Y121.165 E.00515
G1 X114.09 Y120.966 E.01441
G1 X114.61 Y120.792 E.02
G1 X114.948 Y120.742 E.01246
G1 X145.269 Y120.739 E1.10629
G1 X145.935 Y120.776 E.02436
G1 X146.294 Y120.829 E.01323
G1 X146.578 Y120.903 E.01072
G1 X147.136 Y121.178 E.02271
G1 X147.239 Y121.249 E.00455
G1 X147.434 Y121.42 E.00946
G1 X147.619 Y121.638 E.01045
G1 X147.761 Y121.872 E.00998
G1 X147.908 Y122.206 E.01332
G1 X148.021 Y122.698 E.01839
G1 X148.04 Y132.097 E.34295
G1 X147.942 Y132.706 E.02251
G1 X147.908 Y132.82 E.00434
G1 X147.752 Y133.159 E.01359
G1 X147.532 Y133.47 E.01389
G1 X147.314 Y133.683 E.01115
G1 X146.968 Y133.922 E.01534
G1 X146.705 Y134.048 E.01065
G1 X146.274 Y134.172 E.01636
G1 X145.814 Y134.233 E.01691
G1 X145.352 Y134.256 E.01689
G1 X115.016 Y134.258 E1.10682
G1 X114.294 Y134.127 E.02678
G1 X114.058 Y134.027 E.00936
G1 X113.863 Y133.918 E.00815
G1 X113.472 Y133.584 E.01877
G1 X113.397 Y133.499 E.00415
G1 X113.232 Y133.252 E.01082
G1 X113.082 Y132.943 E.01254
G1 X112.964 Y132.548 E.01503
G1 X112.925 Y132.311 E.00878
G1 X112.914 Y122.843 E.34545
G1 X113.007 Y122.268 E.02128
G1 X113.11 Y121.961 E.0118
G1 X113.258 Y121.681 E.01154
G1 X113.495 Y121.385 E.01386
G1 X113.612 Y121.284 E.00564
G1 X113.897 Y121.634 F21000
G1 F2700
G1 X114.044 Y121.515 E.00691
G1 X114.323 Y121.359 E.01166
G1 X114.753 Y121.226 E.01642
G1 X114.938 Y121.199 E.00682
G1 X145.272 Y121.196 E1.1068
G1 X145.869 Y121.228 E.02179
G1 X146.171 Y121.269 E.01113
G1 X146.476 Y121.349 E.0115
G1 X146.931 Y121.586 E.01872
G1 X147.139 Y121.77 E.01012
G1 X147.268 Y121.93 E.0075
G1 X147.339 Y122.048 E.00503
G1 X147.495 Y122.402 E.01412
G1 X147.576 Y122.8 E.01481
G1 X147.583 Y132.108 E.33963
G1 X147.49 Y132.634 E.01947
G1 X147.376 Y132.9 E.01057
G1 X147.222 Y133.134 E.01023
G1 X146.986 Y133.364 E.01202
G1 X146.712 Y133.544 E.01196
G1 X146.51 Y133.634 E.00806
G1 X146.146 Y133.733 E.01374
G1 X145.757 Y133.779 E.01432
G1 X145.327 Y133.8 E.01571
G1 X115.004 Y133.801 E1.10635
G1 X114.477 Y133.709 E.01953
G1 X114.288 Y133.633 E.00742
G1 X114.075 Y133.513 E.00891
G1 X113.774 Y133.241 E.01481
G1 X113.647 Y133.061 E.00802
G1 X113.488 Y132.733 E.01329
G1 X113.403 Y132.422 E.01177
G1 X113.375 Y132.235 E.0069
G1 X113.371 Y122.832 E.34309
G1 X113.459 Y122.338 E.01829
G1 X113.542 Y122.109 E.00892
G1 X113.661 Y121.897 E.00885
G1 X113.851 Y121.671 E.01077
G1 X113.865 Y121.659 E.00069
G1 X114.195 Y121.971 F21000
G1 F2700
G1 X114.321 Y121.877 E.00574
G1 X114.548 Y121.756 E.00937
G1 X114.879 Y121.665 E.01254
G1 X114.995 Y121.652 E.00423
G1 X145.276 Y121.653 E1.10486
G1 X145.802 Y121.68 E.01919
G1 X146.117 Y121.723 E.01163
G1 X146.359 Y121.791 E.00914
G1 X146.639 Y121.937 E.01153
G1 X146.775 Y122.047 E.00639
G1 X146.917 Y122.223 E.00826
G1 X147.08 Y122.594 E.01477
G1 X147.126 Y122.882 E.01064
G1 X147.126 Y132.119 E.337
G1 X147.069 Y132.458 E.01255
G1 X146.987 Y132.661 E.00801
G1 X146.896 Y132.814 E.00648
G1 X146.739 Y132.98 E.00832
G1 X146.514 Y133.132 E.0099
G1 X146.389 Y133.194 E.00511
G1 X146.103 Y133.278 E.01089
G1 X145.698 Y133.326 E.01486
G1 X145.303 Y133.344 E.01441
G1 X114.994 Y133.344 E1.10587
G1 X114.655 Y133.287 E.01255
G1 X114.451 Y133.205 E.00801
G1 X114.299 Y133.115 E.00646
G1 X114.147 Y132.977 E.00747
G1 X114.053 Y132.851 E.00574
G1 X113.932 Y132.625 E.00937
G1 X113.842 Y132.293 E.01254
G1 X113.828 Y132.178 E.00423
G1 X113.828 Y122.82 E.34144
G1 X113.909 Y122.42 E.0149
G1 X113.967 Y122.275 E.00568
G1 X114.058 Y122.123 E.00646
G1 X114.168 Y122.001 E.00601
G1 X114.458 Y122.346 F21000
G1 F2700
G1 X114.603 Y122.237 E.00661
G1 X114.757 Y122.162 E.00626
G1 X114.987 Y122.109 E.0086
G1 X145.28 Y122.11 E1.10527
G1 X145.734 Y122.132 E.0166
G1 X146.065 Y122.177 E.01219
G1 X146.232 Y122.23 E.00639
G1 X146.342 Y122.286 E.0045
G1 X146.501 Y122.413 E.00743
G1 X146.63 Y122.675 E.01066
G1 X146.669 Y122.871 E.00731
G1 X146.669 Y132.13 E.33782
G1 X146.64 Y132.301 E.00634
G1 X146.6 Y132.418 E.00451
G1 X146.496 Y132.593 E.00742
G1 X146.251 Y132.759 E.01079
G1 X146.058 Y132.823 E.00742
G1 X145.683 Y132.869 E.01378
G1 X145.28 Y132.887 E.01471
G1 X114.983 Y132.887 E1.10543
G1 X114.811 Y132.858 E.00634
G1 X114.694 Y132.818 E.00451
G1 X114.522 Y132.715 E.00734
G1 X114.414 Y132.57 E.00661
G1 X114.339 Y132.416 E.00626
G1 X114.286 Y132.186 E.0086
G1 X114.286 Y122.806 E.34222
G1 X114.355 Y122.518 E.01081
G1 X114.437 Y122.38 E.00588
G1 X114.791 Y122.654 F21000
G1 F2700
G1 X114.971 Y122.566 E.0073
G1 X145.283 Y122.567 E1.10596
G1 X145.666 Y122.584 E.014
G1 X146.015 Y122.632 E.01282
G1 X146.148 Y122.699 E.00544
G1 X146.212 Y122.858 E.00625
G1 X146.212 Y132.141 E.33871
G1 X146.163 Y132.282 E.00544
G1 X146.013 Y132.368 E.00632
G1 X145.667 Y132.412 E.01272
G1 X145.283 Y132.43 E.01401
G1 X114.971 Y132.43 E1.10596
G1 X114.83 Y132.381 E.00544
G1 X114.743 Y132.202 E.0073
G1 X114.743 Y122.795 E.34321
G1 X114.778 Y122.692 E.00398
;WIPE_START
G1 X114.971 Y122.566 E-.23013
G1 X116.741 Y122.566 E-1.76987
;WIPE_END
G1 X145.271 Y123.146 F21000
G1 E2 F3600
;TYPE:Outer wall
G1 F2700
G1 X145.633 Y123.173 E.01324
G1 X145.633 Y131.826 E.31572
G1 X145.273 Y131.852 E.01318
G1 X115.321 Y131.852 E1.09281
G1 X115.321 Y123.145 E.31767
G1 X115.468 Y123.145 E.00536
G1 X145.231 Y123.146 E1.08594
G1 X145.176 Y123.603 F21000
;TYPE:Inner wall
G1 F2700
G1 X145.176 Y131.394 E.28429
G1 X115.778 Y131.394 E1.07261
G1 X115.778 Y123.602 E.28431
G1 X145.136 Y123.603 E1.07115
;WIPE_START
G1 X145.146 Y125.603 E-2
;WIPE_END
G1 X144.101 Y123.74 F21000
G1 E2 F3600
;TYPE:Bottom surface
;WIDTH:0.506739
;MM3_PER_MM:0.092764
G1 F2700
G1 X144.833 Y124.472 E.03836
G1 X144.833 Y125.128 E.02429
G1 X143.65 Y123.945 E.06193
G1 X142.994 Y123.945 E.02429
G1 X144.833 Y125.784 E.09628
G1 X144.833 Y126.44 E.02429
G1 X142.338 Y123.945 E.13063
G1 X141.683 Y123.945 E.02429
G1 X144.833 Y127.096 E.16497
G1 X144.833 Y127.752 E.02429
G1 X141.027 Y123.945 E.19932
G1 X140.371 Y123.945 E.02429
G1 X144.833 Y128.408 E.23366
G1 X144.833 Y129.064 E.02429
G1 X139.715 Y123.945 E.26801
G1 X139.059 Y123.945 E.02429
G1 X144.833 Y129.72 E.30235
G1 X144.833 Y130.376 E.02429
G1 X138.403 Y123.945 E.3367
G1 X137.747 Y123.945 E.02429
G1 X144.833 Y131.032 E.37104
G1 X144.833 Y131.052 E.00074
G1 X144.197 Y131.052 E.02355
G1 X137.091 Y123.945 E.37209
G1 X136.435 Y123.945 E.02429
G1 X143.541 Y131.052 E.37209
G1 X142.885 Y131.052 E.02429
G1 X135.779 Y123.945 E.37209
G1 X135.123 Y123.945 E.02429
G1 X142.229 Y131.052 E.37209
G1 X141.573 Y131.052 E.02429
G1 X134.467 Y123.945 E.37209
G1 X133.811 Y123.945 E.02429
G1 X140.918 Y131.052 E.37209
G1 X140.262 Y131.052 E.02429
G1 X133.155 Y123.945 E.37209
G1 X132.499 Y123.945 E.02429
G1 X139.606 Y131.052 E.37209
G1 X138.95 Y131.052 E.02429
G1 X131.843 Y123.945 E.37209
G1 X131.187 Y123.945 E.02429
G1 X138.294 Y131.052 E.37209
G1 X137.638 Y131.052 E.02429
G1 X130.531 Y123.945 E.3721
G1 X129.875 Y123.945 E.02429
G1 X136.982 Y131.052 E.3721
G1 X136.326 Y131.052 E.02429
G1 X129.219 Y123.945 E.3721
G1 X128.564 Y123.945 E.02429
G1 X135.67 Y131.052 E.3721
G1 X135.014 Y131.052 E.02429
G1 X127.908 Y123.945 E.3721
G1 X127.252 Y123.945 E.02429
G1 X134.358 Y131.052 E.3721
G1 X133.702 Y131.052 E.02429
G1 X126.596 Y123.945 E.3721
G1 X125.94 Y123.945 E.02429
G1 X133.046 Y131.052 E.3721
G1 X132.39 Y131.052 E.02429
G1 X125.284 Y123.945 E.3721
G1 X124.628 Y123.945 E.02429
G1 X131.734 Y131.052 E.3721
G1 X131.078 Y131.052 E.02429
G1 X123.972 Y123.945 E.3721
G1 X123.316 Y123.945 E.02429
G1 X130.423 Y131.052 E.3721
